X: 3
T: Pod Moskovniye Vechera
T: Moscow Evenings
M: 2/4
L: 1/8
K: Bm
| "Bm"Bd fd | "Em"e2 dc | "F7"f2 e2 | "Bm"B4 \
| "D"df aa | "G"b2 "A7"ag | "D"f4 |: "C7"^g2 "F7"^a2 |
| "Bm"c'b f2- | f c2B | "Em"fe g2- | g2 ag \
| "Bm"f2 ed | "F7"f2 e2 |1 "Bm"B4 :|2 "Bm"[b4-d2-] | [bd]z3 |]
